X: 12
T: Chief O'Neill's Favourite
Z: leprecawn
S: https://thesession.org/tunes/13#setting49829
R: hornpipe
M: 4/4
L: 1/8
K: Dmaj
||:de|~f3g afge|fdef dcAG|FDAD (3EFG AB|=cAd^c A2 de|
~f3g afge|fdef dcAG|FDAF GBAG|F2 D2 D2:|
|:DE|=F2 FE =FGAB|=cAdB cAGB|Adde fded|cAdc A2 de|
~f3g afge|fdef dcAG|FDAF GB AG|F2 D2 D2:|

%-------------------- TUNE SEPARATOR --------------------%

